; generated by PrusaSlicer 2.7.1+win64 on 2024-03-03 at 22:17:14 UTC


;
;
; 

; external perimeters extrusion width = 0.45mm
; perimeters extrusion width = 0.45mm
; infill extrusion width = 0.45mm
; solid infill extrusion width = 0.45mm
; top infill extrusion width = 0.40mm
; first layer extrusion width = 0.42mm

M73 P0 R166
M73 Q0 S167
M201 X1000 Y1000 Z200 E5000 ; sets maximum accelerations, mm/sec^2
M203 X200 Y200 Z12 E120 ; sets maximum feedrates, mm / sec
M204 S1250 T1250 ; sets acceleration (S) and retract acceleration (R), mm/sec^2
M205 X8.00 Y8.00 Z0.40 E4.50 ; sets the jerk limits, mm/sec
M205 S0 T0 ; sets the minimum extruding and travel feed rate, mm/sec

; printing object minnihola3.STL id:0 copy 0
; stop printing object minnihola3.STL id:0 copy 0

;TYPE:Custom
M862.3 P "MK3S" ; printer model check
M862.1 P0.4 ; nozzle diameter check
M115 U3.13.2 ; tell printer latest fw version
G90 ; use absolute coordinates
M83 ; extruder relative mode
M104 S230 ; set extruder temp
M140 S85 ; set bed temp
M190 S85 ; wait for bed temp
M109 S230 ; wait for extruder temp
G28 W ; home all without mesh bed level
G80 X65.6277 Y45.6388 W118.745 H118.724 ; mesh bed levelling

G1 Z0.2 F720
G1 Y-3 F1000 ; go outside print area
G92 E0
G1 X60 E9 F1000 ; intro line
G1 X100 E12.5 F1000 ; intro line

G92 E0
M221 S95

; Don't change E values below. Excessive value can damage the printer.
M907 E430 ; set extruder motor current
G21 ; set units to millimeters
G90 ; use absolute coordinates
M83 ; use relative distances for extrusion

M900 K0.08 ; Filament gcode LA 1.5
M900 K45 ; Filament gcode LA 1.0




M107
;LAYER_CHANGE
;Z:0.2
;HEIGHT:0.2
;BEFORE_LAYER_CHANGE
G92 E0.0
;0.2


G1 E-1 F2100
G1 Z.2 F720
;AFTER_LAYER_CHANGE
;0.2
G1 X79.169 Y67.559 F10800
G1 Z.2 F720
G1 E1 F2100
M204 S800
;TYPE:Skirt/Brim
;WIDTH:0.42
G1 F1200
G1 X81.94 Y64.404 E.13166
G1 X85.057 Y61.335 E.13715
G1 X88.393 Y58.504 E.13719
G1 X92.074 Y55.83 E.14265
G1 X95.644 Y53.62 E.13165
G1 X99.52 Y51.592 E.13716
G1 X103.699 Y49.793 E.14265
G1 X107.668 Y48.421 E.13167
G1 X111.895 Y47.296 E.13715
G1 X116.368 Y46.46 E.14268
G1 X120.541 Y45.995 E.13165
G1 X124.511 Y45.842 E.12457
G1 X129.284 Y45.982 E.14972
G1 X133.632 Y46.46 E.13715
G1 X138.105 Y47.296 E.14268
M73 Q0 S166
G1 X142.332 Y48.421 E.13715
G1 X146.301 Y49.793 E.13167
G1 X150.321 Y51.516 E.13713
G1 X154.356 Y53.62 E.14268
G1 X157.926 Y55.83 E.13165
G1 X161.469 Y58.396 E.13716
G1 X164.813 Y61.217 E.13717
G1 X168.06 Y64.404 E.14265
G1 X170.942 Y67.695 E.13716
G1 X173.472 Y71.046 E.13165
G1 X175.849 Y74.719 E.13718
G1 X178.026 Y78.714 E.14265
G1 X179.757 Y82.539 E.13164
G1 X181.268 Y86.644 E.13715
G1 X182.471 Y90.85 E.13716
G1 X183.39 Y95.307 E.14269
G1 X183.948 Y99.645 E.13714
G1 X184.181 Y103.838 E.13167
G1 X184.106 Y108.212 E.13716
G1 X183.709 Y112.568 E.13715
G1 X182.956 Y117.055 E.14265
G1 X181.957 Y121.134 E.13167
G1 X180.611 Y125.296 E.13715
G1 X178.889 Y129.508 E.14267
G1 X176.934 Y133.421 E.13715
G1 X174.79 Y137.031 E.13165
G1 X172.289 Y140.621 E.13718
G1 X169.415 Y144.148 E.14265
G1 X166.529 Y147.198 E.13166
G1 X163.598 Y149.879 E.12455
G1 X159.863 Y152.855 E.14974
G1 X156.086 Y155.392 E.14266
G1 X152.281 Y157.55 E.13715
G1 X148.488 Y159.352 E.13167
G1 X144.412 Y160.938 E.13713
G1 X140.229 Y162.219 E.13717
G1 X135.79 Y163.22 E.14268
G1 X131.637 Y163.839 E.13165
G1 X127.275 Y164.168 E.13716
G1 X122.725 Y164.168 E.14266
G1 X118.538 Y163.858 E.13164
G1 X114.607 Y163.279 E.12458
G1 X109.941 Y162.264 E.14972
G1 X105.588 Y160.938 E.14268
G1 X101.673 Y159.422 E.13163
G1 X98.082 Y157.723 E.12456
G1 X93.914 Y155.392 E.14973
G1 X90.137 Y152.855 E.14266
G1 X86.699 Y150.15 E.13716
G1 X83.596 Y147.321 E.13166
G1 X80.585 Y144.148 E.13715
G1 X77.816 Y140.761 E.13717
G1 X75.21 Y137.031 E.14267
G1 X72.982 Y133.267 E.13714
G1 X71.111 Y129.508 E.13165
G1 X69.449 Y125.461 E.13717
G1 X68.043 Y121.134 E.14265
G1 X67.044 Y117.055 E.13167
G1 X66.38 Y113.139 E.12454
G1 X65.904 Y108.387 E.14974
G1 X65.819 Y103.838 E.14266
G1 X66.052 Y99.645 E.13167
G1 X66.61 Y95.307 E.13714
G1 X67.529 Y90.85 E.14269
G1 X68.732 Y86.644 E.13716
G1 X70.176 Y82.702 E.13163
G1 X71.974 Y78.714 E.13716
G1 X74.151 Y74.719 E.14265
G1 X76.528 Y71.046 E.13718
G1 X79.133 Y67.607 E.13527
M204 S1000
; printing object minnihola3.STL id:0 copy 0
;WIPE_START
G1 F8640
G1 X79.169 Y67.559 E-.01385
G1 X81.94 Y64.404 E-.96958
G1 X81.991 Y64.354 E-.01657
;WIPE_END
G1 Z.4 F720
G1 X118.843 Y160.322 F10800
G1 Z.2 F720
G1 E1 F2100
M204 S800
;TYPE:Perimeter
;WIDTH:0.419999
G1 F1200
G1 X114.775 Y159.717 E.12895
G1 X110.764 Y158.812 E.12892
G1 X106.83 Y157.614 E.12894
G1 X102.995 Y156.128 E.12895
G1 X99.281 Y154.364 E.12892
G1 X95.707 Y152.33 E.12894
G1 X92.293 Y150.037 E.12895
G1 X89.058 Y147.498 E.12894
G1 X86.019 Y144.728 E.12893
G1 X83.192 Y141.741 E.12895
G1 X80.595 Y138.553 E.12893
G1 X78.239 Y135.182 E.12895
G1 X76.139 Y131.646 E.12895
G1 X74.306 Y127.965 E.12893
G1 X72.75 Y124.158 E.12895
G1 X71.48 Y120.247 E.12893
G1 X70.501 Y116.253 E.12894
G1 X69.82 Y112.198 E.12892
G1 X69.441 Y108.103 E.12894
G1 X69.365 Y103.991 E.12895
G1 X69.593 Y99.885 E.12894
G1 X70.123 Y95.807 E.12894
G1 X70.953 Y91.78 E.12892
G1 X72.079 Y87.824 E.12896
G1 X73.493 Y83.963 E.12892
G1 X75.189 Y80.216 E.12896
G1 X77.157 Y76.606 E.12892
G1 X79.386 Y73.15 E.12894
G1 X81.864 Y69.868 E.12894
G1 X84.578 Y66.778 E.12895
G1 X87.512 Y63.898 E.12891
G1 X90.652 Y61.241 E.12897
G1 X93.979 Y58.824 E.12894
G1 X97.475 Y56.659 E.12893
G1 X101.122 Y54.759 E.12894
G1 X104.899 Y53.132 E.12895
G1 X108.786 Y51.79 E.12893
G1 X112.761 Y50.737 E.12893
G1 X116.803 Y49.982 E.12893
G1 X120.891 Y49.527 E.12897
G1 X125 Y49.375 E.12892
G1 X129.109 Y49.527 E.12892
G1 X133.197 Y49.982 E.12897
G1 X137.239 Y50.737 E.12893
G1 X141.214 Y51.79 E.12893
G1 X145.101 Y53.132 E.12893
G1 X148.878 Y54.759 E.12895
G1 X152.525 Y56.659 E.12894
G1 X156.021 Y58.824 E.12893
G1 X159.348 Y61.241 E.12894
G1 X162.488 Y63.898 E.12897
G1 X165.422 Y66.778 E.12891
G1 X168.136 Y69.868 E.12895
G1 X170.614 Y73.15 E.12894
G1 X172.843 Y76.606 E.12894
G1 X174.811 Y80.217 E.12894
G1 X176.507 Y83.963 E.12893
G1 X177.921 Y87.824 E.12892
G1 X179.047 Y91.78 E.12896
G1 X179.877 Y95.807 E.12892
G1 X180.407 Y99.885 E.12894
G1 X180.635 Y103.991 E.12894
G1 X180.626 Y104.505 E.01612
G1 X180.559 Y108.103 E.11283
G1 X180.18 Y112.198 E.12894
G1 X179.499 Y116.253 E.12892
M73 P0 R165
G1 X178.52 Y120.247 E.12894
G1 X177.25 Y124.158 E.12893
G1 X175.694 Y127.965 E.12895
G1 X173.861 Y131.646 E.12893
G1 X171.761 Y135.182 E.12895
G1 X169.405 Y138.553 E.12895
G1 X166.808 Y141.741 E.12893
G1 X163.981 Y144.728 E.12895
G1 X160.942 Y147.499 E.12895
G1 X157.707 Y150.037 E.12892
G1 X154.293 Y152.33 E.12895
G1 X150.719 Y154.364 E.12894
G1 X147.005 Y156.128 E.12892
G1 X143.17 Y157.614 E.12895
G1 X139.236 Y158.812 E.12894
G1 X135.225 Y159.717 E.12892
G1 X131.157 Y160.322 E.12895
G1 X127.056 Y160.626 E.12894
G1 X122.944 Y160.626 E.12893
G1 X118.903 Y160.327 E.12705
M204 S1000
G1 X118.801 Y160.697 F10800
M204 S800
;TYPE:External perimeter
G1 F1200
G1 X114.706 Y160.088 E.12981
G1 X110.667 Y159.177 E.12982
G1 X106.707 Y157.971 E.12979
G1 X102.846 Y156.475 E.12983
G1 X99.106 Y154.698 E.12983
G1 X95.508 Y152.65 E.12981
G1 X92.071 Y150.342 E.12981
G1 X88.814 Y147.787 E.12979
G1 X85.754 Y144.997 E.12984
G1 X82.909 Y141.99 E.12979
G1 X80.293 Y138.78 E.12984
G1 X77.922 Y135.386 E.12981
G1 X75.808 Y131.827 E.12979
G1 X73.963 Y128.121 E.1298
G1 X72.396 Y124.288 E.12984
G1 X71.117 Y120.351 E.12979
G1 X70.132 Y116.329 E.12983
G1 X69.446 Y112.246 E.12981
G1 X69.064 Y108.124 E.1298
G1 X68.988 Y103.984 E.12983
G1 X69.217 Y99.85 E.12982
G1 X69.751 Y95.745 E.12979
G1 X70.587 Y91.69 E.12982
G1 X71.72 Y87.708 E.12981
G1 X73.144 Y83.82 E.12982
G1 X74.851 Y80.048 E.12982
G1 X76.832 Y76.413 E.1298
G1 X79.077 Y72.934 E.12982
G1 X81.572 Y69.63 E.12981
G1 X84.304 Y66.519 E.12982
G1 X87.258 Y63.619 E.12979
G1 X90.419 Y60.944 E.12984
G1 X93.768 Y58.511 E.12979
G1 X97.288 Y56.331 E.12982
G1 X100.96 Y54.418 E.12982
G1 X104.763 Y52.781 E.12982
G1 X108.676 Y51.429 E.12981
G1 X112.678 Y50.369 E.12981
G1 X116.748 Y49.609 E.12982
G1 X120.863 Y49.15 E.12982
G1 X125 Y48.997 E.1298
G1 X129.137 Y49.15 E.1298
G1 X133.252 Y49.609 E.12982
G1 X137.322 Y50.369 E.12982
G1 X141.324 Y51.429 E.12981
G1 X145.237 Y52.781 E.12981
G1 X149.04 Y54.418 E.12982
G1 X152.712 Y56.331 E.12982
G1 X156.232 Y58.511 E.12982
G1 X159.581 Y60.944 E.12979
G1 X162.742 Y63.619 E.12984
G1 X165.696 Y66.519 E.12979
G1 X168.428 Y69.63 E.12982
G1 X170.923 Y72.934 E.12981
G1 X173.168 Y76.413 E.12982
G1 X175.149 Y80.048 E.1298
G1 X176.856 Y83.82 E.12982
G1 X178.28 Y87.708 E.12982
G1 X179.413 Y91.69 E.12981
G1 X180.249 Y95.745 E.12982
G1 X180.783 Y99.85 E.12979
G1 X181.012 Y103.984 E.12982
G1 X181.003 Y104.512 E.01656
G1 X180.936 Y108.124 E.11327
G1 X180.554 Y112.246 E.1298
G1 X179.868 Y116.329 E.12981
G1 X178.883 Y120.351 E.12983
G1 X177.604 Y124.288 E.12979
G1 X176.037 Y128.121 E.12984
G1 X174.192 Y131.827 E.1298
G1 X172.078 Y135.386 E.12979
G1 X169.707 Y138.78 E.12981
G1 X167.091 Y141.99 E.12984
G1 X164.246 Y144.997 E.12979
G1 X161.186 Y147.787 E.12984
G1 X157.929 Y150.342 E.12979
G1 X154.492 Y152.65 E.12981
G1 X150.894 Y154.698 E.12981
G1 X147.154 Y156.475 E.12983
G1 X143.293 Y157.971 E.12983
G1 X139.333 Y159.177 E.12979
G1 X135.294 Y160.088 E.12982
G1 X131.199 Y160.697 E.12981
G1 X127.07 Y161.003 E.12982
G1 X122.93 Y161.003 E.12981
G1 X118.861 Y160.702 E.12793
M204 S1000
;WIPE_START
G1 F8640
G1 X118.801 Y160.697 E-.0139
G1 X114.706 Y160.088 E-.95595
G1 X114.579 Y160.059 E-.03015
;WIPE_END
G1 Z.4 F720
G1 X145.965 Y86.683 F10800
G1 Z.2 F720
G1 E1 F2100
M204 S800
;TYPE:Perimeter
G1 F1200
G1 X147.776 Y88.985 E.09184
G1 X149.351 Y91.496 E.09294
G1 X150.651 Y94.161 E.09297
G1 X151.66 Y96.949 E.09296
G1 X152.386 Y99.954 E.09693
G1 X152.763 Y102.769 E.08905
G1 X152.845 Y105.731 E.09291
G1 X152.612 Y108.687 E.09297
G1 X152.066 Y111.601 E.09296
G1 X151.213 Y114.44 E.09295
G1 X150.063 Y117.173 E.09297
G1 X148.629 Y119.768 E.09296
G1 X146.927 Y122.197 E.093
G1 X144.977 Y124.43 E.09295
G1 X142.798 Y126.446 E.09308
G1 X140.423 Y128.214 E.09283
G1 X139.91 Y128.52 E.01873
G1 X137.817 Y129.75 E.07612
G1 X135.171 Y130.95 E.0911
G1 X132.3 Y131.9 E.09482
G1 X129.401 Y132.524 E.09298
G1 X126.452 Y132.836 E.09298
G1 X123.544 Y132.836 E.09118
G1 X120.599 Y132.524 E.09285
G1 X117.696 Y131.899 E.09311
G1 X114.885 Y130.972 E.09281
G1 X112.183 Y129.75 E.09298
G1 X109.577 Y128.214 E.09485
G1 X107.199 Y126.443 E.09297
G1 X105.023 Y124.43 E.09294
G1 X103.11 Y122.244 E.09108
G1 X101.384 Y119.791 E.09404
G1 X99.963 Y117.227 E.09191
G1 X98.808 Y114.497 E.09294
G1 X97.949 Y111.659 E.09297
G1 X97.396 Y108.746 E.09297
G1 X97.155 Y105.731 E.09483
G1 X97.237 Y102.767 E.09297
G1 X97.634 Y99.829 E.09296
G1 X98.323 Y97.007 E.09108
G1 X99.327 Y94.214 E.09306
G1 X100.619 Y91.549 E.09286
G1 X102.189 Y89.034 E.09296
G1 X104.018 Y86.7 E.09297
G1 X106.084 Y84.573 E.09297
G1 X108.364 Y82.678 E.09296
G1 X110.833 Y81.037 E.09295
G1 X113.464 Y79.666 E.09302
G1 X116.223 Y78.584 E.09292
M73 Q0 S165
G1 X119.087 Y77.8 E.0931
G1 X122.009 Y77.326 E.09281
G1 X124.97 Y77.165 E.09298
G1 X127.931 Y77.32 E.09297
G1 X130.917 Y77.801 E.09483
G1 X133.777 Y78.584 E.09297
G1 X136.537 Y79.667 E.09296
G1 X139.12 Y81.009 E.09127
G1 X141.587 Y82.643 E.09278
G1 X143.876 Y84.536 E.09313
G1 X145.926 Y86.638 E.09206
M204 S1000
G1 X145.665 Y86.91 F10800
M204 S800
;TYPE:External perimeter
G1 F1200
G1 X145.672 Y86.917 E.00031
G1 X147.479 Y89.217 E.09171
G1 X149.032 Y91.696 E.09172
G1 X150.312 Y94.326 E.09171
G1 X151.305 Y97.077 E.0917
G1 X152.013 Y100.004 E.09442
G1 X152.39 Y102.82 E.08908
G1 X152.468 Y105.741 E.09162
G1 X152.236 Y108.659 E.09178
G1 X151.695 Y111.531 E.09163
G1 X150.852 Y114.332 E.09171
G1 X149.715 Y117.027 E.09171
G1 X148.299 Y119.586 E.0917
G1 X146.619 Y121.98 E.0917
G1 X144.694 Y124.182 E.0917
G1 X142.544 Y126.167 E.09175
G1 X140.198 Y127.912 E.09167
G1 X139.718 Y128.195 E.01747
G1 X137.676 Y129.399 E.07433
G1 X135.016 Y130.607 E.0916
G1 X132.239 Y131.526 E.09171
G1 X129.361 Y132.149 E.09233
G1 X126.452 Y132.459 E.09173
G1 X123.546 Y132.459 E.09112
G1 X120.639 Y132.149 E.09166
G1 X117.779 Y131.531 E.09174
G1 X115.003 Y130.614 E.09167
G1 X112.336 Y129.405 E.09181
G1 X109.802 Y127.912 E.09222
G1 X107.455 Y126.166 E.09172
G1 X105.306 Y124.182 E.0917
G1 X103.394 Y121.996 E.09106
G1 X101.705 Y119.593 E.09209
G1 X100.293 Y117.045 E.09134
G1 X99.154 Y114.348 E.09179
G1 X98.31 Y111.55 E.09163
G1 X97.767 Y108.676 E.09171
G1 X97.532 Y105.741 E.09232
G1 X97.611 Y102.817 E.09171
G1 X98 Y99.918 E.09171
G1 X98.689 Y97.096 E.09108
G1 X99.681 Y94.344 E.09172
G1 X100.959 Y91.714 E.09168
G1 X102.51 Y89.232 E.09177
G1 X104.314 Y86.933 E.09163
G1 X106.354 Y84.836 E.09173
G1 X108.605 Y82.969 E.0917
G1 X111.042 Y81.351 E.09172
G1 X113.637 Y80.001 E.09172
G1 X116.36 Y78.935 E.09169
G1 X119.183 Y78.164 E.09175
G1 X122.069 Y77.698 E.09166
G1 X124.993 Y77.542 E.09181
G1 X127.911 Y77.696 E.09162
G1 X130.818 Y78.165 E.09233
G1 X133.621 Y78.929 E.09109
G1 X136.345 Y79.993 E.09169
G1 X138.943 Y81.342 E.09178
G1 X141.379 Y82.957 E.09164
G1 X143.633 Y84.824 E.09177
G1 X145.623 Y86.867 E.08942
M204 S1000
;WIPE_START
G1 F8640
G1 X145.665 Y86.91 E-.01388
G1 X145.672 Y86.917 E-.00229
G1 X147.479 Y89.217 E-.67538
G1 X148.188 Y90.349 E-.30845
;WIPE_END
G1 Z.4 F720
G1 X161.16 Y62.996 F10800
G1 Z.2 F720
G1 E1 F2100
M204 S800
;TYPE:Solid infill
;WIDTH:0.420347
G1 F1200
G1 X165.177 Y67.014 E.17831
G1 X167.873 Y70.083 E.1282
G1 X168.367 Y70.738 E.02575
G1 X159.137 Y61.507 E.40967
G1 X157.185 Y60.089 E.07572
G1 X170.014 Y72.918 E.56938
G1 X170.336 Y73.344 E.01676
G1 X171.116 Y74.554 E.04518
G1 X155.402 Y58.84 E.69743
G1 X154 Y57.972 E.05175
G1 X172.086 Y76.058 E.8027
G1 X172.551 Y76.779 E.02692
G1 X172.884 Y77.389 E.02181
G1 X152.599 Y57.104 E.9003
G1 X152.357 Y56.954 E.00894
G1 X151.434 Y56.474 E.03265
G1 X173.523 Y78.562 E.98034
G1 X174.162 Y79.735 E.04192
G1 X150.32 Y55.893 E1.05817
G1 X149.205 Y55.311 E.03947
G1 X174.71 Y80.817 E1.132
G1 X175.152 Y81.792 E.0336
G1 X148.192 Y54.833 E1.19653
G1 X147.255 Y54.429 E.03202
G1 X175.593 Y82.767 E1.25771
G1 X176.035 Y83.742 E.0336
G1 X146.318 Y54.026 E1.31889
G1 X145.38 Y53.622 E.03205
G1 X176.391 Y84.632 E1.37632
G1 X176.699 Y85.475 E.02817
M73 P1 R164
M73 Q1 S165
G1 X144.513 Y53.288 E1.42852
G1 X143.697 Y53.006 E.02709
G1 X177.008 Y86.317 E1.47843
G1 X177.316 Y87.159 E.02814
G1 X142.882 Y52.725 E1.52827
G1 X142.066 Y52.443 E.02709
G1 X177.616 Y87.993 E1.5778
G1 X177.829 Y88.739 E.02435
G1 X141.251 Y52.161 E1.62342
G1 X140.51 Y51.954 E.02415
G1 X178.041 Y89.485 E1.66572
G1 X178.253 Y90.231 E.02434
G1 X139.784 Y51.762 E1.70735
G1 X139.058 Y51.57 E.02357
G1 X178.465 Y90.977 E1.74898
G1 X178.678 Y91.723 E.02435
G1 X138.332 Y51.378 E1.79064
G1 X137.606 Y51.186 E.02357
G1 X178.83 Y92.409 E1.8296
G1 X178.968 Y93.082 E.02156
G1 X136.908 Y51.021 E1.86675
G1 X136.251 Y50.898 E.02098
M73 Q1 S164
G1 X179.107 Y93.754 E1.90206
G1 X179.246 Y94.426 E.02154
G1 X135.595 Y50.775 E1.93734
G1 X134.938 Y50.653 E.02097
G1 X179.384 Y95.099 E1.97263
G1 X179.523 Y95.771 E.02154
G1 X134.282 Y50.53 E2.00791
G1 X133.625 Y50.407 E.02098
G1 X179.611 Y96.393 E2.04097
G1 X179.691 Y97.006 E.0194
G1 X132.984 Y50.3 E2.07295
G1 X132.383 Y50.233 E.01898
G1 X179.77 Y97.62 E2.10315
G1 X179.85 Y98.233 E.0194
G1 X131.783 Y50.166 E2.13333
G1 X131.182 Y50.099 E.01898
G1 X179.93 Y98.847 E2.16356
G1 X180.01 Y99.461 E.01943
M73 P1 R163
G1 X130.581 Y50.032 E2.19378
G1 X129.981 Y49.965 E.01895
G1 X180.077 Y100.062 E2.22341
G1 X180.109 Y100.627 E.01776
G1 X129.38 Y49.898 E2.25148
G1 X128.803 Y49.855 E.01816
G1 X180.14 Y101.192 E2.27847
G1 X180.171 Y101.757 E.01776
G1 X128.249 Y49.835 E2.30443
G1 X127.694 Y49.814 E.01743
G1 X180.203 Y102.322 E2.33046
G1 X180.234 Y102.887 E.01776
G1 X127.14 Y49.794 E2.35642
G1 X126.586 Y49.773 E.0174
G1 X180.265 Y103.452 E2.38241
G1 X180.295 Y104.016 E.01773
G1 X126.032 Y49.753 E2.40833
G1 X125.477 Y49.732 E.01743
M73 Q1 S163
G1 X180.286 Y104.54 E2.43254
G1 X180.276 Y105.064 E.01645
G1 X124.929 Y49.717 E2.45644
